public/static/img/user/google_sm.svg

<svg width="24" height="24" viewBox="0 0 24 24" fill="none" xmlns="http://www.w3.org/2000/svg">
<path d="M10.2349 11.9871C10.2349 11.3973 10.4681 10.8316 10.8831 10.4146C11.2981 9.9975 11.8609 9.7632 12.4478 9.7632C13.0347 9.7632 13.5976 9.9975 14.0126 10.4146C14.4276 10.8316 14.6607 11.3973 14.6607 11.9871C14.6607 12.5769 14.4276 13.1425 14.0126 13.5596C13.5976 13.9766 13.0347 14.2109 12.4478 14.2109C11.8609 14.2109 11.2981 13.9766 10.8831 13.5596C10.4681 13.1425 10.2349 12.5769 10.2349 11.9871ZM12.483 10.5804H18.8407C19.134 10.5804 19.429 10.5769 19.7223 10.5804H19.7346C20.0595 10.5804 20.4003 10.7216 20.6286 10.9528C20.7515 11.0675 20.8393 11.2034 20.8903 11.3623C20.9693 11.5141 21.0062 11.6764 20.9992 11.8512C20.9851 12.1795 20.8762 12.5201 20.6286 12.7495C20.3809 12.9772 20.0771 13.1219 19.7346 13.1219H13.3769C13.0836 13.1219 12.7886 13.1255 12.4953 13.1219H12.483C12.158 13.1219 11.8173 12.9808 11.589 12.7495C11.4661 12.6348 11.3783 12.4989 11.3273 12.3401C11.2483 12.1883 11.2114 12.0259 11.2184 11.8512C11.2325 11.5229 11.3414 11.1822 11.589 10.9528C11.8366 10.7251 12.1405 10.5804 12.483 10.5804Z" fill="white"/>
<path fill-rule="evenodd" clip-rule="evenodd" d="M11.8278 4.8C7.92745 4.8 4.76557 8.02355 4.76557 12C4.76557 15.9764 7.92745 19.2 11.8278 19.2C14.1024 19.2 16.1257 18.1047 17.4188 16.3995C17.717 16.0063 18.2714 15.934 18.6571 16.238C19.0428 16.542 19.1138 17.1072 18.8156 17.5005C17.2025 19.6276 14.6722 21 11.8278 21C6.95235 21 3 16.9706 3 12C3 7.02944 6.95235 3 11.8278 3C14.6722 3 17.2025 4.37244 18.8156 6.49952C19.1138 6.89276 19.0428 7.458 18.6571 7.76202C18.2714 8.06604 17.717 7.99372 17.4188 7.60048C16.1257 5.89531 14.1024 4.8 11.8278 4.8Z" fill="white"/>
</svg>

<svg width="24" height="24" fill="none" xmlns="http://www.w3.org/2000/svg"><path d="M10.235 11.987c0-.59.233-1.155.648-1.572a2.207 2.207 0 0 1 3.13 0 2.23 2.23 0 0 1 0 3.145 2.208 2.208 0 0 1-3.13 0 2.23 2.23 0 0 1-.648-1.573Zm2.248-1.407h6.358c.293 0 .588-.003.881 0h.013c.325 0 .665.142.894.373.122.115.21.25.261.41a.957.957 0 0 1 .11.488c-.015.329-.124.67-.371.898-.248.228-.552.373-.894.373h-6.358c-.293 0-.588.004-.882 0h-.012c-.325 0-.666-.141-.894-.373a.949.949 0 0 1-.262-.409.957.957 0 0 1-.109-.489c.014-.328.123-.669.371-.898.248-.228.551-.373.894-.373Z" fill="#fff"/><path fill-rule="evenodd" clip-rule="evenodd" d="M11.828 4.8c-3.9 0-7.062 3.224-7.062 7.2s3.161 7.2 7.062 7.2c2.274 0 4.298-1.095 5.59-2.8a.872.872 0 0 1 1.24-.162c.385.304.456.87.158 1.262-1.613 2.128-4.144 3.5-6.988 3.5C6.952 21 3 16.97 3 12s3.952-9 8.828-9c2.844 0 5.375 1.372 6.988 3.5a.912.912 0 0 1-.159 1.262.871.871 0 0 1-1.238-.162c-1.293-1.705-3.317-2.8-5.591-2.8Z" fill="#fff"/></svg>
